src/svg/48/block_outline_48.svg

<svg fill="none" height="48" viewBox="0 0 48 48" width="48" xmlns="http://www.w3.org/2000/svg"><path d="m24 44c-11.0457 0-20-8.9543-20-20s8.9543-20 20-20 20 8.9543 20 20-8.9543 20-20 20zm17-20c0-9.3888-7.6112-17-17-17-4.1544 0-7.9607 1.49017-10.9136 3.9651l23.9485 23.9485c2.4749-2.9529 3.9651-6.7592 3.9651-10.9136zm-17 17c4.1539 0 7.9598-1.4898 10.9126-3.9643l-23.9483-23.9483c-2.47447 2.9528-3.9643 6.7587-3.9643 10.9126 0 9.3888 7.6112 17 17 17z" fill="currentColor"/></svg>

<svg width="48" height="48" viewBox="0 0 48 48" fill="none" xmlns="http://www.w3.org/2000/svg">
<path d="M24 44C12.9543 44 4 35.0457 4 24C4 12.9543 12.9543 4 24 4C35.0457 4 44 12.9543 44 24C44 35.0457 35.0457 44 24 44ZM41 24C41 14.6112 33.3888 7 24 7C19.8456 7 16.0393 8.49017 13.0864 10.9651L37.0349 34.9136C39.5098 31.9607 41 28.1544 41 24ZM24 41C28.1539 41 31.9598 39.5102 34.9126 37.0357L10.9643 13.0874C8.48983 16.0402 7 19.8461 7 24C7 33.3888 14.6112 41 24 41Z" fill="currentColor"/>
</svg>
